X:1
T: The Wild Geese
T: 8 x 32J 3C (RSCDS Bk 24)
P: Mrs. McPherson of Cluny
C: Joseph Lowe, from B. McOwen
C: arr. T. Traub 12-11-1999
R: jig
M: 6/8
L: 1/8
%
K: A
|: d|"A"c2 e ece|"D"fga "A"ecA|"A"c2 e ecA|"E"GAB Bcd|"A"c2 e ece|"D"fga "A"ecA|
"Bm"Bcd "E7"efg|"A"aec A2 :| e|"A"a3 Ace|aga ecA|"Bm"dcB fdB|"E"bge efg|
"A"a3 Ace|aga ecA|"D"Bcd "E7"efg|"A"aec A2 e|| "A"a3 Ace|"A"aga ecA|
"Bm"dcB fdB|"E"bge efg|"A"a2 e ece|"D"fga "A"ecA|"D"Bcd "E"efg|"A"aec A2 |]
